src/assets/images/star.svg

<svg xmlns="http://www.w3.org/2000/svg" height="24" width="24" viewBox="0 0 24 24">
  <path fill="#1e293b" d="M12.013418 1.0000808a1.0796685 1.0807105 0 0 0-.981419.6024666L8.0647414 7.6233757l-6.6418274.9727724a1.0796685 1.0807105 0 0 0-.59613517 1.8438539l4.80358427 4.681587-1.1347653 6.613703a1.0796685 1.0807105 0 0 0 1.5679696 1.139697L12 19.751373l5.936432 3.123616a1.0796685 1.0807105 0 0 0 1.567971-1.139697l-1.134766-6.613703 4.803584-4.681587a1.0796685 1.0807105 0 0 0-.596135-1.8438539l-6.637994-.9727724L12.968 1.6025474a1.0796685 1.0807105 0 0 0-.954582-.6024666Zm-.01342 3.5227027 2.254196 4.5664663a1.0796685 1.0807105 0 0 0 .81082.5909545l5.035522.7367747-3.643901 3.551483a1.0796685 1.0807105 0 0 0-.310526.957423l.858741 5.017356-4.502644-2.369573a1.0796685 1.0807105 0 0 0-1.004421 0l-4.5026406 2.369573.8587414-5.017356a1.0796685 1.0807105 0 0 0-.3105271-.957423l-3.6438961-3.551483 5.0393548-.7367747a1.0796685 1.0807105 0 0 0 .8108205-.5909545Z"/>
</svg>

<?xml version="1.0" encoding="UTF-8" standalone="no"?>
<svg
   xmlns:dc="http://purl.org/dc/elements/1.1/"
   xmlns:cc="http://creativecommons.org/ns#"
   xmlns:rdf="http://www.w3.org/1999/02/22-rdf-syntax-ns#"
   xmlns:svg="http://www.w3.org/2000/svg"
   xmlns="http://www.w3.org/2000/svg"
   xmlns:sodipodi="http://sodipodi.sourceforge.net/DTD/sodipodi-0.dtd"
   xmlns:inkscape="http://www.inkscape.org/namespaces/inkscape"
   height="24"
   width="24"
   viewBox="0 0 24 24"
   version="1.1"
   id="svg4"
   sodipodi:docname="star.svg"
   inkscape:version="0.92.5 (2060ec1f9f, 2020-04-08)">
  <metadata
     id="metadata10">
    <rdf:RDF>
      <cc:Work
         rdf:about="">
        <dc:format>image/svg+xml</dc:format>
        <dc:type
           rdf:resource="http://purl.org/dc/dcmitype/StillImage" />
      </cc:Work>
    </rdf:RDF>
  </metadata>
  <defs
     id="defs8" />
  <sodipodi:namedview
     pagecolor="#ffffff"
     bordercolor="#666666"
     borderopacity="1"
     objecttolerance="10"
     gridtolerance="10"
     guidetolerance="10"
     inkscape:pageopacity="0"
     inkscape:pageshadow="2"
     inkscape:window-width="1600"
     inkscape:window-height="833"
     id="namedview6"
     showgrid="false"
     inkscape:zoom="9.8333333"
     inkscape:cx="12"
     inkscape:cy="12"
     inkscape:window-x="0"
     inkscape:window-y="0"
     inkscape:window-maximized="1"
     inkscape:current-layer="svg4" />
  <path
     style="color:#000000;font-style:normal;font-variant:normal;font-weight:normal;font-stretch:normal;font-size:medium;line-height:normal;font-family:sans-serif;font-variant-ligatures:normal;font-variant-position:normal;font-variant-caps:normal;font-variant-numeric:normal;font-variant-alternates:normal;font-feature-settings:normal;text-indent:0;text-align:start;text-decoration:none;text-decoration-line:none;text-decoration-style:solid;text-decoration-color:#000000;letter-spacing:normal;word-spacing:normal;text-transform:none;writing-mode:lr-tb;direction:ltr;text-orientation:mixed;dominant-baseline:auto;baseline-shift:baseline;text-anchor:start;white-space:normal;shape-padding:0;clip-rule:nonzero;display:inline;overflow:visible;visibility:visible;opacity:1;isolation:auto;mix-blend-mode:normal;color-interpolation:sRGB;color-interpolation-filters:linearRGB;solid-color:#000000;solid-opacity:1;vector-effect:none;fill:#1e293b;fill-opacity:1;fill-rule:nonzero;stroke:none;stroke-width:2.16016269;stroke-linecap:round;stroke-linejoin:round;stroke-miterlimit:4;stroke-dasharray:none;stroke-dashoffset:0;stroke-opacity:1;color-rendering:auto;image-rendering:auto;shape-rendering:auto;text-rendering:auto;enable-background:accumulate"
     d="M 12.013418,1.0000808 A 1.0796685,1.0807105 0 0 0 11.031999,1.6025474 L 8.0647414,7.6233757 1.422914,8.5961481 A 1.0796685,1.0807105 0 0 0 0.82677883,10.440002 l 4.80358427,4.681587 -1.1347653,6.613703 a 1.0796685,1.0807105 0 0 0 1.5679696,1.139697 L 12,19.751373 l 5.936432,3.123616 a 1.0796685,1.0807105 0 0 0 1.567971,-1.139697 l -1.134766,-6.613703 4.803584,-4.681587 A 1.0796685,1.0807105 0 0 0 22.577086,8.5961481 L 15.939092,7.6233757 12.968,1.6025474 A 1.0796685,1.0807105 0 0 0 12.013418,1.0000808 Z m -0.01342,3.5227027 2.254196,4.5664663 a 1.0796685,1.0807105 0 0 0 0.81082,0.5909545 l 5.035522,0.7367747 -3.643901,3.551483 a 1.0796685,1.0807105 0 0 0 -0.310526,0.957423 l 0.858741,5.017356 -4.502644,-2.369573 a 1.0796685,1.0807105 0 0 0 -1.004421,0 L 6.9951444,19.943241 7.8538858,14.925885 A 1.0796685,1.0807105 0 0 0 7.5433587,13.968462 L 3.8994626,10.416979 8.9388174,9.6802043 A 1.0796685,1.0807105 0 0 0 9.7496379,9.0892498 Z"
     id="path2"
     inkscape:connector-curvature="0" />
</svg>
